src/assets/withdraw.svg

<svg fill="none" height="24" viewBox="0 0 24 24" width="24" xmlns="http://www.w3.org/2000/svg" xmlns:xlink="http://www.w3.org/1999/xlink"><clipPath id="a"><path d="m0 0h24v24h-24z"/></clipPath><g clip-path="url(#a)"><path d="m4.46098 11h-2.36098c-.60751 0-1.1-.4974-1.1-1.11111v-7.77778c0-.61365.49249-1.11111 1.1-1.11111h19.8c.6075 0 1.1.49746 1.1 1.11111v7.77778c0 .61371-.4925 1.11111-1.1 1.11111h-2.0793" stroke="#1dc071" stroke-width="2"/><path d="m19.4286 6h-14.85717c-.3156 0-.57143.24551-.57143.54839v15.90321c0 .3029.25583.5484.57143.5484h14.85717c.3156 0 .5714-.2455.5714-.5484v-15.90321c0-.30288-.2558-.54839-.5714-.54839z" stroke="#1dc071" stroke-width="2"/><path d="m15 16.3794c0 .4359-.1051.8465-.3152 1.232-.2023.3772-.5058.6915-.9104.9429-.3969.243-.8678.3855-1.4125.4274v1.0183h-.7471v-1.0309c-.7782-.0754-1.4047-.3268-1.87943-.7542-.47467-.4359-.71977-1.0225-.73537-1.76h1.751c.0467.6034.3346.968.8638 1.0937v-2.4012c-.5603-.1508-1.0117-.3017-1.3541-.4525-.3424-.1509-.63812-.3939-.88712-.7292-.24908-.3353-.37358-.792-.37358-1.3703 0-.7291.24128-1.3241.72375-1.7851.49025-.461 1.12055-.725 1.89105-.792v-1.0183h.7471v1.0183c.7471.067 1.3424.3101 1.786.7291.4513.4191.7043.9973.7587 1.7349h-1.7626c-.0234-.243-.1051-.4526-.2452-.6286-.1323-.1844-.3112-.3143-.5369-.3897v2.376c.5836.1593 1.0428.3143 1.3774.4651.3424.1425.6381.3813.8871.7166.2491.3269.3736.7794.3736 1.3577zm-4.2957-3.872c0 .2766.0778.5029.2335.6789.1556.1676.3813.3059.677.4148v-2.1748c-.2802.0419-.502.155-.6654.3394s-.2451.4316-.2451.7417zm1.6576 5.0663c.2957-.0587.5253-.1886.6887-.3897.1712-.2011.2568-.4442.2568-.7291 0-.2766-.0818-.4987-.2452-.6663s-.3968-.3059-.7003-.4149z" fill="#1dc071"/></g></svg>

<svg width="24" height="24" viewBox="0 0 24 24" fill="none" xmlns="http://www.w3.org/2000/svg">
<g clip-path="url(#clip0_1071_25635)">
<path d="M4.46098 11H2.1C1.49249 11 1 10.5026 1 9.88889V2.11111C1 1.49746 1.49249 1 2.1 1H21.9C22.5075 1 23 1.49746 23 2.11111V9.88889C23 10.5026 22.5075 11 21.9 11H19.8207" stroke="#1DC071" stroke-width="2"/>
<path d="M19.4286 6H4.57143C4.25583 6 4 6.24551 4 6.54839V22.4516C4 22.7545 4.25583 23 4.57143 23H19.4286C19.7442 23 20 22.7545 20 22.4516V6.54839C20 6.24551 19.7442 6 19.4286 6Z" stroke="#1DC071" stroke-width="2"/>
<path d="M15 16.3794C15 16.8153 14.8949 17.2259 14.6848 17.6114C14.4825 17.9886 14.179 18.3029 13.7744 18.5543C13.3775 18.7973 12.9066 18.9398 12.3619 18.9817V20H11.6148V18.9691C10.8366 18.8937 10.2101 18.6423 9.73537 18.2149C9.2607 17.779 9.0156 17.1924 9 16.4549H10.751C10.7977 17.0583 11.0856 17.4229 11.6148 17.5486V15.1474C11.0545 14.9966 10.6031 14.8457 10.2607 14.6949C9.9183 14.544 9.62258 14.301 9.37358 13.9657C9.1245 13.6304 9 13.1737 9 12.5954C9 11.8663 9.24128 11.2713 9.72375 10.8103C10.214 10.3493 10.8443 10.0853 11.6148 10.0183V9H12.3619V10.0183C13.109 10.0853 13.7043 10.3284 14.1479 10.7474C14.5992 11.1665 14.8522 11.7447 14.9066 12.4823H13.144C13.1206 12.2393 13.0389 12.0297 12.8988 11.8537C12.7665 11.6693 12.5876 11.5394 12.3619 11.464V13.84C12.9455 13.9993 13.4047 14.1543 13.7393 14.3051C14.0817 14.4476 14.3774 14.6864 14.6264 15.0217C14.8755 15.3486 15 15.8011 15 16.3794ZM10.7043 12.5074C10.7043 12.784 10.7821 13.0103 10.9378 13.1863C11.0934 13.3539 11.3191 13.4922 11.6148 13.6011V11.4263C11.3346 11.4682 11.1128 11.5813 10.9494 11.7657C10.786 11.9501 10.7043 12.1973 10.7043 12.5074ZM12.3619 17.5737C12.6576 17.515 12.8872 17.3851 13.0506 17.184C13.2218 16.9829 13.3074 16.7398 13.3074 16.4549C13.3074 16.1783 13.2256 15.9562 13.0622 15.7886C12.8988 15.621 12.6654 15.4827 12.3619 15.3737V17.5737Z" fill="#1DC071"/>
</g>
<defs>
<clipPath id="clip0_1071_25635">
<rect width="24" height="24" fill="white"/>
</clipPath>
</defs>
</svg>
